X:27
T:Blue Bonnet Clog
R:clog
C:Bruce Osborne - Jan. 2003
Z:abc by bosborne@kos.net
M:4/4
L:1/8
K:F
C>B,|A,>CF>A c>Ad>A|c>AF>D C>A,B,>A,|G,>A,B,>C E>FE>D|C>DC>B, A,2 C>B,|\
A,>CF>A c>Ad>A|c>AF>D C>A,B,>A,|G,>A,B,>C E>FE>D|(3CB,C A>G F2:|
|:A,>B,|(3CB,C F>A c>Ad>A|(3FEF A>f e2 G>A|(3BAB e>d c>dc>G|(3FEF (3GFG A2 A,>B,|\
(3CB,C F>A c>Ad>A|(3FEF A>f e2 G>A|(3BAB e>d c>dc>G|(3FEF A>G F2:|
